icons/svg/clipboard-outline.svg

﻿<?xml version="1.0" encoding="utf-8"?>
<!DOCTYPE svg PUBLIC "-//W3C//DTD SVG 1.1//EN" "http://www.w3.org/Graphics/SVG/1.1/DTD/svg11.dtd">
<svg xmlns="http://www.w3.org/2000/svg" xmlns:xlink="http://www.w3.org/1999/xlink" version="1.1" baseProfile="full" width="24" height="24" viewBox="0 0 24.00 24.00" enable-background="new 0 0 24.00 24.00" xml:space="preserve">
	<path fill="#000000" fill-opacity="1" stroke-width="0.2" stroke-linejoin="round" d="M 7.00017,7.99991L 7.00017,5.99993L 5.00014,5.99993L 5.00014,19L 19.0001,19L 19.0001,5.99993L 17.0002,5.99993L 17.0002,7.99991L 7.00017,7.99991 Z M 9.00013,3.99997C 9.00013,2.34313 10.3432,0.999947 12.0001,0.999947C 13.6569,0.999947 15.0001,2.34313 15.0001,3.99997L 18.9998,4.00009C 20.1044,4.00009 20.9998,4.89551 20.9998,6.00006L 20.9998,19C 20.9998,20.1046 20.1044,21 18.9998,21L 5,21C 3.89543,21 3,20.1046 3,19L 3,6.00006C 3,4.89551 3.89543,4.00009 5,4.00009L 9.00013,3.99997 Z M 12.0001,2.99993C 11.4478,2.99993 11.0001,3.44762 11.0001,3.99994C 11.0001,4.55222 11.4478,4.99994 12.0001,4.99994C 12.5524,4.99994 13.0001,4.55222 13.0001,3.99994C 13.0001,3.44762 12.5524,2.99993 12.0001,2.99993 Z "/>
</svg>

<svg xmlns="http://www.w3.org/2000/svg" version="1.1" baseProfile="full" width="24" height="24" viewBox="0 0 24.00 24.00" xml:space="preserve"><path fill="#000" fill-opacity="1" stroke-width=".2" stroke-linejoin="round" d="M7 8V6H5v13h14V6h-2v2H7zm2-4c0-1.657 1.343-3 3-3s3 1.343 3 3h4c1.104 0 2 .896 2 2v13c0 1.105-.896 2-2 2H5c-1.105 0-2-.895-2-2V6c0-1.104.895-2 2-2h4zm3-1c-.552 0-1 .448-1 1s.448 1 1 1 1-.448 1-1-.448-1-1-1z"/></svg>
